src/actions/16/format-justify-fill.svg

<svg viewBox="0 0 16 16" xmlns="http://www.w3.org/2000/svg">
 <defs>
  <style type="text/css">.ColorScheme-Text {
        color:#2e3440;
      }</style>
 </defs>
 <path class="ColorScheme-Text" d="m2 2v1h12v-1h-12zm0 2v1h7 5v-1h-5-7zm0 3v1h3 9v-1h-9-3zm0 2v1h8 4v-1h-4-8zm0 3v1h4 8v-1h-8-4z" fill="currentColor"/>
</svg>

<svg xmlns="http://www.w3.org/2000/svg" viewBox="0 0 16 16">
  <defs id="defs3051">
    <style type="text/css" id="current-color-scheme">
      .ColorScheme-Text {
        color:#2e3440;
      }
      </style>
  </defs>
 <path style="fill:currentColor;fill-opacity:1;stroke:none" 
       d="M 2 2 L 2 3 L 14 3 L 14 2 L 2 2 z M 2 4 L 2 5 L 9 5 L 14 5 L 14 4 L 9 4 L 2 4 z M 2 7 L 2 8 L 5 8 L 14 8 L 14 7 L 5 7 L 2 7 z M 2 9 L 2 10 L 10 10 L 14 10 L 14 9 L 10 9 L 2 9 z M 2 12 L 2 13 L 6 13 L 14 13 L 14 12 L 6 12 L 2 12 z "
     class="ColorScheme-Text"
     />
</svg>
